X:1
T:Title
%%score 1 { 2 | 3 }
L:1/8
Q:1/4=112
M:4/4
K:G
V:1 treble nm="Grand Piano, Unnamed-000"
V:2 bass nm="Choir Pad, Southwell (Daman), SM"
V:3 bass 
V:1
 [B,E]2 [B,G]2 [EG]2 [EF]2 | [^DF]2 [B,E]6 | [B,E]2 [B,G]2 [DG]2 [EA]2 | [DA]2 [DB]6 | %4
w: By~William~Daman,~1579 * * *||||
 [GB]2 [Gd]2 [Fd]2 [Ec]2 | [Dc]2 [DB]2 [DB]2 [DA]2 | [GB]2 [EA]2 [EG]2 [EF]2 | [^DF]2 [B,E]6- | %8
w: ||||
 [B,E]2 z2 z4 |] %9
w: |
V:2
 G,2 G,2 G,2 C2 | B,2 G,6 | G,2 G,2 G,2 G,2 | F,2 G,6 | G,2 A,2 A,2 G,2 | A,2 G,2 G,2 F,2 | %6
 D2 C2 B,2 B,2 | B,2 G,6- | G,2 z2 z4 |] %9
V:3
 E,2 E,2 C,2 A,,2 | B,,2 E,6 | E,2 E,2 B,,2 C,2 | D,2 G,,6 | E,2 D,2 D,2 E,2 | F,2 z2 B,,2 D,2 | %6
 G,,2 A,,2 E,2 B,,2 | B,,2 E,6- | E,2 z2 z4 |] %9

